X: 10341
M: 3/4
L: 1/8
K: G
g4 fe | ed dz e2 | dc cz d2 |
cB Bz G2 | g4 fe | ed dz e2 | e^c cz BA |\
d2dAfA | e2eA^cA | d2dAfA | e2eA^cA |\
de^cede | =cdBdAd | G2z DGA |
g4 fe | ed dz e2 | dc cz d2 | cB Bz G2 |\
g4 fe | ed dz e2 | dc cz d2 | g2 z |]


